Hatter-kde/actions/22/tool-spray.svg

<?xml version="1.0" encoding="UTF-8"?>
<svg viewBox="0 0 22 22" xmlns="http://www.w3.org/2000/svg">
 <defs id="defs3051">
  <style id="current-color-scheme" type="text/css">.ColorScheme-Text {
        color:#363636;
      }</style>
 </defs>
 <path class="ColorScheme-Text" d="m4 3a1 1 0 0 0-1 1 1 1 0 0 0 1 1 1 1 0 0 0 1-1 1 1 0 0 0-1-1zm4 0a1 1 0 0 0-1 1 1 1 0 0 0 1 1 1 1 0 0 0 1-1 1 1 0 0 0-1-1zm4 1a1 1 0 0 0-1 1 1 1 0 0 0 1 1 1 1 0 0 0 1-1 1 1 0 0 0-1-1zm3.5 0a1.5 1.5 0 0 0-1.5 1.5v1.5h-1v2h-1v10h7v-10h-1v-2h-1v-1.5a1.5 1.5 0 0 0-1.5-1.5zm-11.5 2a1 1 0 0 0-1 1 1 1 0 0 0 1 1 1 1 0 0 0 1-1 1 1 0 0 0-1-1zm4 0a1 1 0 0 0-1 1 1 1 0 0 0 1 1 1 1 0 0 0 1-1 1 1 0 0 0-1-1zm-4 3a1 1 0 0 0-1 1 1 1 0 0 0 1 1 1 1 0 0 0 1-1 1 1 0 0 0-1-1z" fill="currentColor"/>
</svg>

<svg xmlns="http://www.w3.org/2000/svg" viewBox="0 0 22 22">
  <defs id="defs3051">
    <style type="text/css" id="current-color-scheme">
      .ColorScheme-Text {
        color:#363636;
      }
      </style>
  </defs>
 <path 
    style="fill:currentColor;fill-opacity:1;stroke:none" 
    d="M 4 3 A 1 0.99999851 0 0 0 3 4 A 1 0.99999851 0 0 0 4 5 A 1 0.99999851 0 0 0 5 4 A 1 0.99999851 0 0 0 4 3 z M 8 3 A 1 1 0 0 0 7 4 A 1 1 0 0 0 8 5 A 1 1 0 0 0 9 4 A 1 1 0 0 0 8 3 z M 12 4 A 1 1 0 0 0 11 5 A 1 1 0 0 0 12 6 A 1 1 0 0 0 13 5 A 1 1 0 0 0 12 4 z M 15.5 4 A 1.5 1.5 0 0 0 14 5.5 L 14 7 L 13 7 L 13 9 L 12 9 L 12 19 L 19 19 L 19 9 L 18 9 L 18 7 L 17 7 L 17 5.5 A 1.5 1.5 0 0 0 15.5 4 z M 4 6 A 0.99999791 1 0 0 0 3 7 A 0.99999791 1 0 0 0 4 8 A 0.99999791 1 0 0 0 5 7 A 0.99999791 1 0 0 0 4 6 z M 8 6 A 1 1 0 0 0 7 7 A 1 1 0 0 0 8 8 A 1 1 0 0 0 9 7 A 1 1 0 0 0 8 6 z M 4 9 A 0.99999791 1 0 0 0 3 10 A 0.99999791 1 0 0 0 4 11 A 0.99999791 1 0 0 0 5 10 A 0.99999791 1 0 0 0 4 9 z "
    class="ColorScheme-Text"
    />  
</svg>
